X:3
T:Reel 003
C:Generated
M:4/4
L:1/8
Q:1/4=126
K:A
|: A A A A ^C D E ^F | A B ^C D ^C D E ^F | E ^F ^G a B A A A | ^F E D ^C A A A A | A B ^C D ^C B A A | A A A A A B ^C D | D ^C B A E ^F ^G a | B A A A B ^C D E | :|
|: ^F E D ^C ^C D E ^F | D E ^F ^G E D ^C B | E D ^C B A B ^C D | ^C B A A B ^C D E | A A A A A B ^C D | E D ^C B D ^C B A | ^C D E ^F ^F ^G a a | B ^C D E E D ^C B | :|
